images/icons/cf_icon_setup_grey.svg

<svg width="142" height="142" viewBox="0 0 142 142" fill="none" xmlns="http://www.w3.org/2000/svg">
<path d="M137.901 36.3002C137.801 35.1002 137.001 34.1002 135.901 33.7002C134.801 33.3002 133.501 33.6002 132.701 34.4002L115.301 51.8002L96.0008 45.7002L89.9008 26.4002L107.301 9.00022C108.201 8.10022 108.401 6.90022 108.001 5.80022C107.601 4.70022 106.601 3.90022 105.401 3.80022C94.7008 2.70022 84.3008 6.50022 76.8008 14.0002C66.5008 24.3002 63.8008 39.3002 68.6008 52.0002C68.1008 52.4002 67.6008 52.9002 67.0008 53.4002L9.00078 108.3C9.00078 108.3 9.00078 108.3 8.90078 108.4C2.10078 115.2 2.10078 126.4 8.90078 133.2C15.7008 140 26.8008 140 33.6008 133.1L33.7008 133L88.1008 74.4002C88.6008 73.9002 89.1008 73.4002 89.5008 72.8002C102.301 77.6002 117.301 74.9002 127.501 64.6002C135.001 57.2002 138.801 46.9002 137.901 36.3002ZM24.9008 125.8C22.4008 128.3 18.3008 128.3 15.8008 125.8C13.3008 123.3 13.3008 119.2 15.8008 116.7C18.3008 114.2 22.4008 114.2 24.9008 116.7C27.4008 119.2 27.4008 123.3 24.9008 125.8Z" fill="#818181"/>
</svg>

<?xml version="1.0" encoding="utf-8"?>
<!-- Generator: Adobe Illustrator 18.1.1, SVG Export Plug-In . SVG Version: 6.00 Build 0)  -->
<svg version="1.1" id="Capa_1" xmlns="http://www.w3.org/2000/svg" xmlns:xlink="http://www.w3.org/1999/xlink" x="0px" y="0px"
	 viewBox="0 0 141.7 141.7" enable-background="new 0 0 141.7 141.7" xml:space="preserve">
<g>
	<path fill="#818181" d="M137.9,36.3c-0.1-1.2-0.9-2.2-2-2.6c-1.1-0.4-2.4-0.1-3.2,0.7l-17.4,17.4l-19.3-6.1l-6.1-19.3l17.4-17.4
		c0.9-0.9,1.1-2.1,0.7-3.2c-0.4-1.1-1.4-1.9-2.6-2C94.7,2.7,84.3,6.5,76.8,14c-10.3,10.3-13,25.3-8.2,38c-0.5,0.4-1,0.9-1.6,1.4
		L9,108.3c0,0,0,0-0.1,0.1c-6.8,6.8-6.8,18,0,24.8c6.8,6.8,17.9,6.8,24.7-0.1c0,0,0.1-0.1,0.1-0.1l54.4-58.6c0.5-0.5,1-1,1.4-1.6
		c12.8,4.8,27.8,2.1,38-8.2C135,57.2,138.8,46.9,137.9,36.3z M24.9,125.8c-2.5,2.5-6.6,2.5-9.1,0c-2.5-2.5-2.5-6.6,0-9.1
		c2.5-2.5,6.6-2.5,9.1,0C27.4,119.2,27.4,123.3,24.9,125.8z"/>
</g>
</svg>
